!!!!SEGMENT: pl-sa--371-a-viii-11--003_anonim--grates-nunc-omnes-reddamus.krn
!!!cenid: 17xx:1734
!!!COM: Anonim
!!!COM-rismid: pe30004985
!!!CDT:
!!!CNT:
!!!OTL: Grates nunc omnes reddamus
!!!PDT:
!!!AGN: Sacred
!!!SMS-siglum: PL-SA
!!!SMS-shelfmark: 371/A VIII 11
!!!SMS-shelfwork: 003 W
!!!SMS-variant: Canto: PL-SA 371/A VIII 11:3
!!!SMS-altvar: Canto: PL-SA 371/A VIII 11:2
!!!NIFC-rismid: 1001041392
!!!URL-scan: http://bc.bdsandomierz.pl/dlibra/publication/1675/edition/1643/content
!!!ONB-nifc: UWAGA: utwory w zbiorze: 1. Pasterze mili, coście widzieli, 2. Bóg się rodzi, 3. Grates nunc omnes reddamus
!!!SMS-variant: PL-SA
!!!SMS-altvar:
!!!key:
**kern	**kern	**dynam	**kern	**dynam	**kern	**text
*part4	*part3	*part3	*part2	*part2	*part1	*part1
*staff4	*staff3	*	*staff2	*	*staff1	*staff1
*I"Baſso.	*I"Violino 2do.	*	*I"Violino Primo	*	*I"Canto.	*
*I'cb	*I'vl 2	*	*I'vl 1	*	*I'S	*
*Icbass	*Ivioln	*	*Ivioln	*	*Isoprn	*
*ICstr	*ICstr	*	*ICstr	*	*ICvox	*
*IGacmp	*IGacmp	*	*IGacmp	*	*IGsolo	*
*clefF4	*clefG2	*	*clefG2	*	*clefC1	*
*k[f#c#g#]	*k[c#g#f#]	*	*k[f#c#g#]	*	*k[c#f#g#]	*
*A:	*A:	*	*A:	*	*A:	*
*M6/8	*M6/8	*	*M6/8	*	*M6/8	*
=1	=1	=1	=1	=1	=1	=1
!LO:TX:b:i:t=Grates nunc omnes.	!LO:TX:b:i:t=Grates	!	!LO:TX:b:i:t=Grates	!	!LO:TX:a:i:t=andantino.	!
!LO:TX:a:i:t=Andante	!LO:TX:a:i:t=Adagio	!	!LO:TX:a:i:t=andantino.	!	!LO:TX:t=P:problem:znaki cc# f# g#	!
8A\L	8r	.	8r	.	8a\	Gra-
8A\	(8A/L	.	(8c#/L	.	8e/	-tes
8A\J	8c#/J)	.	8e/J)	.	8a\	nunc
8A\L	8r	.	8r	.	4cc#\	om-
8A\	(8A/L	.	8c#/L	.	.	.
8A\J	8c#/J)	.	8e/J	.	8cc#\	-nes
=2	=2	=2	=2	=2	=2	=2
!	!	!	!	!	!LO:SIC:v:l:s=red-	!
8r	8r	.	8r	.	8ee\	re-
8B\L	(8B/L	.	(8d/L	.	8dd#X\	.
8G#\J	8d/J)	.	8e/J)	.	8ddn\	-da-
8E\L	8r	.	8r	.	4b\	-mus
8E\	(8B/L	.	(8d/L	.	.	.
8E\J	8d/J)	.	8e/J)	.	8r	.
=3	=3	=3	=3	=3	=3	=3
8E\L	8r	.	8r	.	8g#/	gra-
8E\	(8G#/L	.	8B/L	.	8e/	-tes
8E\J	8B/J)	.	8d/J	.	8g#/	nunc
!	!	!	!	!	!LO:LB:g=original	!
8E\L	8r	.	8r	.	4b\	om-
8E\	(8G#/L	.	8B/L	.	.	.
8E\J	8B/J)	.	8d/J	.	8dd\	-nes
=4	=4	=4	=4	=4	=4	=4
!	!	!	!	!	!LO:SIC:v:l:s=red-	!
8r	8r	.	8r	.	4cc#\	re-
8A\L	(8A/L	.	(8c#/L	.	.	.
8E\J	8c#/J)	.	8e/J)	.	8b\	-da-
8AA/L	8r	.	8r	.	4a\	-mus
8AA/	(8A/L	.	(8c#/L	.	.	.
8AA/J	8c#/J)	.	8e/J)	.	8r	.
=5	=5	=5	=5	=5	=5	=5
8D\L	8dd\L	.	8ff#\L	.	8ff#\	Do-
8d\	8dd\	.	8ff#\	.	8ff#\	-mi-
8d\J	8dd\J	.	8ff#\J	.	8ff#\	-no
8c#\L	4cc#\	.	4ee\	.	4ee\	De-
8B\	.	.	.	.	.	.
8A\J	8ff#\	.	8aa\	.	8aa\	-o
!	!LO:LB:g=original	!	!	!	!	!
=6	=6	=6	=6	=6	=6	=6
8D\L	8dd\L	.	8ff#\L	.	8ff#\	Do-
8d\	8dd\	.	8ff#\	.	8ff#\	-mi-
8d\J	8dd\J	.	8ff#\J	.	8ff#\	-no
8c#\L	4cc#\	.	4ee\	.	4ee\	De-
8A\	.	.	.	.	.	.
8A\J	8ff#\	.	8aa\	.	8aa\	-o
!	!	!	!LO:LB:g=original	!	!LO:LB:g=original	!
=7	=7	=7	=7	=7	=7	=7
*tremolo	*	*	*	*	*	*
8D\L	8dd\L	.	8ff#\L	.	8ff#\	qui
8D\	8cc#\	.	8ee\	.	8ee\	su-
8D\J	8b\J	.	8dd\J	.	8dd\	-a
8E\L	8a/L	.	8cc#\L	.	8cc#\	Na-
8E\	8e/	.	8b\	.	8b\	-ti-
8E\J	8d/J	.	8a\J	.	8a\	-vi-
!LO:LB:g=original	!	!	!	!	!	!
=8	=8	=8	=8	=8	=8	=8
!	!	!	!LO:TX:a:t=P:problem: mixed beam	!	!	!
8E\L	8g#/L	.	8ee\L	.	8ee\	-ta-
8E\	8g#/	.	8e/	.	8e/	-te
8E\J	8f#/J	.	8dd#X\J	.	8r	.
!	!	!	!LO:TX:a:t=P:problem: mixed beam	!	!	!
8E\L	8g#/L	.	8ee\L	.	4r	.
8E\	8g#/J	.	8e/J	.	.	.
8E\J	8r	.	8r	.	8r	.
*Xtremolo	*	*	*	*	*	*
=9	=9	=9	=9	=9	=9	=9
*	*	*	*^	*	*	*
4E\	4e/	.	4b/	4g#\	.	4b\	gra-
8E\	8e/	.	8b/	8g#\	.	8b\	-tes
4E\	4e/	.	4b/	4g#\	.	8b\	nunc
.	.	.	.	.	.	8gg#\	om-
8r	8r	.	8r	8ryy	.	8ee\	-nes.
=10	=10	=10	=10	=10	=10	=10	=10
4B\	4d#X/	.	4b/	4f#\	.	4b\	Gra-
8BB/	8d#/	.	8b/	8f#\	.	8b\	-tes
!	!	!	!	!	!	!LO:LB:g=original	!
4BB/	4d#/	.	4b/	4f#\	.	8b\	nunc
.	.	.	.	.	.	8aa\	om-
8r	8r	.	8r	8ryy	.	8gg#\	-nes
*	*	*	*v	*v	*	*	*
=11	=11	=11	=11	=11	=11	=11
!	!	!	!LO:TX:a:t=1	!	!LO:SIC:v:l:s=red-	!
4E\	8e/L	.	2.r	.	8gg#\	re-
.	8f#/	.	.	.	8aa\	-da-
8D#X\	8d#X/J	.	.	.	8ff#\	-mus
!	!	!	!	!	!LO:SIC:v:l:s=red-	!
4E\	8e/L	.	.	.	8gg#\	re-
.	8f#/	.	.	.	8aa\	-da-
8D#\	8d#X/J	.	.	.	8ff#\	-mus
=12	=12	=12	=12	=12	=12	=12
4E\	8e/L	.	8.ee\L	.	8.ee\	Do-
.	8g#/	.	.	.	.	.
.	.	.	16ee\K	.	16ee\	-mi-
8E\	8g#/J	.	8ee\J	.	8ee\	-no
4F#\	4f#/	.	4dd#X\	.	4dd#X\	De-
8F#\	8f#/	.	8dd#\	.	8dd#\	-o
=13	=13	=13	=13	=13	=13	=13
4G#\	8b\L	.	8.ddn\L	.	8.ddn\	Do-
.	8b\	.	.	.	.	.
.	.	.	16dd\K	.	16dd\	-mi-
8G#\	8b\J	.	8dd\J	.	8dd\	-no
!	!	!	!	!	!LO:LB:g=original	!
4A\	4a/	.	4cc#\	.	4cc#\	De-
8A\	8a/	.	8cc#\	.	8cc#\	-o
!	!LO:LB:g=original	!	!	!	!	!
=14	=14	=14	=14	=14	=14	=14
8E\L	8a/L	.	8cc#\L	.	8cc#\	qui
8E\	8g#/	.	8b\	.	8b\	su-
8E\J	8b/J	.	8dd\J	.	8dd\	-a
!	!	!	!LO:LB:g=original	!	!	!
8E\L	8a/L	.	8cc#\L	.	8cc#\	Na-
8E\	8g#/	.	8b\	.	8b\	-ti-
8E\J	8b/J	.	8dd\J	.	8dd\	-vi-
=15	=15	=15	=15	=15	=15	=15
*	*	*	*^	*	*	*
8E\L	8a/L	.	8cc#\L	4ryy	.	8cc#\	-ta-
8E\J	8g#/J	.	8b\J	.	.	8b\	-te
8r	8r	.	8r	8ryy	.	8r	.
!LO:LB:g=original	!	!	!	!	!	!	!
8E\L	8e/L	.	8b/L	8g#\L	.	8ee\	nos
8E\	8e/	.	8b/	8g#\	.	8b\	li-
8E\J	8e/J	.	8b/J	8g#\J	.	8gg#\	-be-
=16	=16	=16	=16	=16	=16	=16	=16
8E\L	8e/L	.	8b/L	8g#\L	.	8.gg#\	-ra-
8E\	8e/	.	8b/	8g#\	.	.	.
.	.	.	.	.	.	16ff#\	.
8E\J	8e/J	.	8b/J	8g#\J	.	8ee\	-vit
!	!	!	!	!	!	!LO:LB:g=original	!
8B\L	8d#X/L	.	8b/L	8a\L	.	8ff#\	nos
8B\	8d#/	.	8b/	8a\	.	8b\	li-
8B\J	8d#/J	.	8b/J	8a\J	.	8aa\	-be-
=17	=17	=17	=17	=17	=17	=17	=17
8B\L	8d#X/L	.	8b/L	8a\L	.	8.aa\	-ra-
8B\	8d#/	.	8b/	8a\	.	.	.
.	.	.	.	.	.	16gg#\	.
8B\J	8d#/J	.	8b/J	8a\J	.	8ff#\	-vit
8e\L	8ee\L	.	8ee\L	4ryy	.	8ee\	de
8d#X\	8dd#X\	.	8dd#X\	.	.	8dd#X\	dia-
8c#\J	8cc#\J	.	8cc#\J	8ryy	.	8cc#\	-bo-
*	*	*	*v	*v	*	*	*
=18	=18	=18	=18	=18	=18	=18
8B\L	8b/L	.	8b/L	.	8b\	.
8A\	8a/	.	8a/	.	8a\	-li-
8G#\J	8g#/J	.	8g#/J	.	8g#\	-ca
8A\L	8a/L	.	8a/L	.	8a\	po-
8F#\	8f#/	.	8f#/	.	8f#/	-te-
8B\J	8b/J	.	8b/J	.	8b\	-sta-
!	!	!	!	!	!LO:LB:g=original	!
=19	=19	=19	=19	=19	=19	=19
8E\L	8e/L	.	8e/L	.	4e/	-te
8E\	16e/L	.	16e/L	.	.	.
.	16d#X/	.	16f#/	.	.	.
8E\J	16e/	.	16g#/	.	8r	.
.	16f#/JJ	.	16a/JJ	.	.	.
8E\L	4g#\	.	4b\	.	4r	.
8E\	.	.	.	.	.	.
8E\J	8a/	.	8cc#\	.	8r	.
=20	=20	=20	=20	=20	=20	=20
!	!	!	!	!	!LO:TX:a:t=1	!
8E\L	8b\L	.	8dd\L	.	2.r	.
8E\	16b\L	.	16dd\L	.	.	.
.	16cc#\	.	16ee\	.	.	.
8E\J	16b\	.	16dd\	.	.	.
.	16a\JJ	.	16cc#\JJ	.	.	.
4E;\	4b;\	.	4dd\	.	.	.
!	!	!	!	!	!L	!
8r	8r	.	8r;	.	.	.
!	!LO:LB:g=original	!	!LO:LB:g=original	!	!	!
=21||	=21||	=21||	=21||	=21||	=21||	=21||
*M3/4	*M3/4	*	*M3/4	*	*M3/4	*
*	*tremolo	*	*tremolo	*	*	*
!LO:TX:b:i:t=Huic	!	!	!	!	!	!
!LO:TX:a:i:t=ada.	!LO:TX:b:t=Huic	!	!LO:TX:b:t=Huic	!	!	!
4A\	(8c#/L	.	(8a/L	.	4ee\	Hu-
.	8e/	.	8cc#/	.	.	.
4A\	8c#/	.	8a/	.	4cc#\	-ic
.	8e/	.	8cc#/	.	.	.
!	!	!	!	!	!LO:SIC:v:l:s=o-	!
4A\	8c#/	.	8a/	.	4aa 4ff#\	op-
.	8e/J)	.	8cc#/J)	.	.	.
*	*Xtremolo	*	*Xtremolo	*	*	*
=22	=22	=22	=22	=22	=22	=22
4A\	8r	.	8r	.	4ff#\	-por-
.	8c#/	.	8a/	.	.	.
*	*tremolo	*	*	*	*	*
!	!	!	!	!	!LO:SIC:v:l:s=-tet	!
4A\	(8e/L	.	8cc#\L	.	4ee\	-tett
.	8c#/	.	8a\	.	.	.
4r	8e/	.	8cc#\	.	4r	.
.	8c#/J)	.	8a\J	.	.	.
=23	=23	=23	=23	=23	=23	=23
*	*	*	*tremolo	*	*	*
4E\	(8B/L	.	(8g#/L	.	4dd\	hu-
.	8d/	.	8b/	.	.	.
4E\	8B/	.	8g#/	.	4b\	-ic
.	8d/	.	8b/	.	.	.
!	!	!	!	!	!LO:SIC:v:l:s=o-	!
4E\	8B/	.	8g#/	.	4dd\	op-
.	8d/J)	.	8b/J)	.	.	.
*	*Xtremolo	*	*Xtremolo	*	*	*
=24	=24	=24	=24	=24	=24	=24
4E\	8r	.	8r	.	4dd\	-por-
.	8b\	.	8dd\	.	.	.
*	*tremolo	*	*tremolo	*	*	*
*	*	*	*2\right	*	*	*
4A\	8a/L	.	8cc#\L	.	4cc#\	-tet
.	8a/	.	8cc#\	.	.	.
4r	8a/	.	8cc#\	.	4r	.
.	8a/J	.	8cc#\J	.	.	.
!LO:LB:g=original	!	!	!	!	!LO:LB:g=original	!
=25	=25	=25	=25	=25	=25	=25
4A\	(8c#/L	.	(8a/L	.	8cc#\L	ut
.	8e/	.	8cc#/	.	8ee\J	.
4r	8c#/	.	8a/	.	8ee\L	ca-
.	8e/	.	8cc#/	.	8dd\J	-na-
4r	8c#/	.	8a/	.	4cc#\	-mus
.	8e/J)	.	8cc#/J)	.	.	.
=26	=26	=26	=26	=26	=26	=26
4E\	8B/L	.	(8g#/L	.	8b\L	ut
.	8d/	.	8b/	.	8dd\J	.
4r	8B/	.	8g#/	.	8dd\L	ca-
.	8d/	.	8b/	.	8cc#\J	-na-
4r	8B/	.	8g#/	.	4b\	-mus
.	8d/J	.	8b/J)	.	.	.
=27	=27	=27	=27	=27	=27	=27
4A\	(8c#/L	.	(8a/L	.	8cc#\L	Cum
.	8e/	.	8cc#/	.	8ee\J	.
4r	8c#/	.	8a/	.	8ee\L	An-
.	8e/	.	8cc#/	.	8dd\J	-ge-
4r	8c#/	.	8a/	.	4cc#\	-lis.
.	8e/J)	.	8cc#/J)	.	.	.
=28	=28	=28	=28	=28	=28	=28
4E\	(8B/L	.	8g#/L	.	8b\L	Cum
.	8d/	.	8b/	.	8dd\J	.
4r	8B/	.	8g#/	.	8dd\L	An-
.	8d/	.	8b/	.	8cc#\J	-ge-
4r	8B/	.	8g#/	.	4b\	-lis
.	8d/J)	.	8b/J	.	.	.
*	*Xtremolo	*	*Xtremolo	*	*	*
!	!LO:LB:g=original	!	!	!	!LO:LB:g=original	!
=29	=29	=29	=29	=29	=29	=29
8A\L|	(8a'/L	.	8a/L|	.	8aa\	Sem-
8G#\|	8g#'/	.	8g#/|	.	8gg#\	-per
8F#\|	8f#'/	.	8f#/|	.	8ff#\	Glo-
8E\|	8e'/	.	8e/|	.	8ee\	-ria
8D\|	8d'/)	.	8d/|	.	8dd\	in
!	!	!	!	!	!LO:SIC:v:l:s=e-	!
8C#\J|	8c#'/J	.	8c#/J|	.	8cc#\	ne-
!	!	!	!LO:LB:g=original	!	!	!
=30	=30	=30	=30	=30	=30	=30
4BB/	4B/	.	4B/	.	4b\	-xel-
4AA/	4A/	.	4A/	.	4a\	-cis
4r	4r	.	4r	.	4r	.
=31	=31	=31	=31	=31	=31	=31
!	!	!	!	!	!LO:TX:a:t=8.	!
4E\	8e/L	.	8e/L|	.	0.r	.
.	8d#X/	.	8f#/|	.	.	.
!	!	!LO:DY:b:t=for.	!	!LO:DY:b:t=for	!	!
4r	8e/	f	8g#/|	f	.	.
.	8f#/	.	8a/|	.	.	.
4r	8g#/	.	8b/|	.	.	.
.	8a/J	.	8cc#/J|	.	.	.
=32	=32	=32	=32	=32	=32	=32
4G#\	4.b\	.	4.dd\	.	.	.
4E\	.	.	.	.	.	.
.	8g#/	.	8b\	.	.	.
4A\	8a/L	.	8cc#\L	.	.	.
.	8B/J	.	8a\J	.	.	.
=33	=33	=33	=33	=33	=33	=33
4E\	8e/L|	.	8e/L|	.	.	.
.	8d#X/|	.	8f#/|	.	.	.
4r	8e'/	.	8g#/|	.	.	.
.	8f#'/	.	8a/|	.	.	.
4r	8g#'/	.	8b/|	.	.	.
.	8a'/J	.	8cc#/J|	.	.	.
=34	=34	=34	=34	=34	=34	=34
8E\L	8a/L	.	8cc#\L	.	.	.
8E\J	8B/J	.	8g#\J	.	.	.
4A\	4c#/	.	4.a/	.	.	.
4r	4r	.	.	.	.	.
.	.	.	16cc#\LL	.	.	.
.	.	.	16dd\JJ	.	.	.
!LO:LB:g=original	!	!	!	!	!	!
=35	=35	=35	=35	=35	=35	=35
4E\	8e/L	.	8ee\L	.	0.r	.
.	8d#X/	.	8dd#X\	.	.	.
4G#\	8e/	.	8ee\	.	.	.
.	8f#/	.	8ff#\	.	.	.
4E\	8B/	.	8b\	.	.	.
.	8dn/J	.	8ddn\J	.	.	.
=36	=36	=36	=36	=36	=36	=36
8c#\L	8c#/L	.	8cc#\L	.	.	.
8G#\J	8G#/J	.	8g#\J	.	.	.
4A\	8A/L	.	4a/	.	.	.
.	8B/	.	.	.	.	.
4r	8c#/	.	16a/LL	.	.	.
.	.	.	16b/	.	.	.
.	8d#X/J	.	16cc#/	.	.	.
.	.	.	16dd#X/JJ	.	.	.
!	!LO:LB:g=original	!	!LO:LB:g=original	!	!	!
=37	=37	=37	=37	=37	=37	=37
4E\	8e/L	.	8ee\L	.	.	.
.	(8d#X/	.	8dd#X\	.	.	.
4G#\	8e/	.	8ee\	.	.	.
.	8f#/	.	8ff#\	.	.	.
4E\	8B/)	.	8b\	.	.	.
.	8dn/J	.	8ddn\J	.	.	.
=38	=38	=38	=38	=38	=38	=38
8c#\L	8c#/L	.	8cc#\L	.	.	.
8G#\J	8G#/J	.	8g#\J	.	.	.
4A\	4A/	.	4a/	.	.	.
4r	4r	.	4r	.	.	.
==	==	==	==	==	==	==
*-	*-	*-	*-	*-	*-	*-
!!!system-decoration: s1[(s2,s3,s4)]
!!!RDF**kern: | = vertical stroke
!!!AIN: 1 cbass 1 soprn 2 violn
!!!ENC: Marta Lawrence
!!!END: 2021-12-30
